!!!OTL: Die Rabenmutter Der Halter wollt' den Wald austreibn,
!!!ARE: Europa, Mitteleuropa, Oesterreich, Niederoesterreich
!!!YOR: 5, S. 267
!!    ????
!!!SCT: Q0114H
!!!YEM: Copyright 1995, estate of Helmut Schaffrath.
**kern
*ICvox
*Ivox
*M4/4
*k[f#]
*G:
{4d
=1
4g
4g
4a
4a
=2
4b
4b
4g}
{4g
=3
4a
4a
4d
4d
=4
4g
4g
4g}
{4d
=5
4g
4g
4a
4a
=6
4b
4b
4g}
{4g
=7
4a
4a
4d
4d
=8
2.g}
==
!!!AGN: Ballade, Kinds - Mord, Strafe
!!!ONB: ESAC (Essen Associative Code) Database: BALLADE
!!!AMT: simple quadruple
!!!AIN: vox
!!!EED: Helmut Schaffrath
!!!EEV: 1.0
*-
